src/icons/ios-telephone.svg

<svg xmlns="http://www.w3.org/2000/svg" width="512" height="512" viewBox="0 0 512 512">
    <path d="M401.4 321.7c-13.3-13.6-51-39.2-75.7-39.2-5.7 0-10.7 1.3-14.8 3.9-12.1 7.7-21.7 13.7-26.4 13.7-2.5 0-5.3-2.3-11.3-7.5l-1-.9c-16.6-14.5-20.2-18.2-26.6-24.9l-1.6-1.7c-1.2-1.2-2.2-2.3-3.2-3.3-5.6-5.8-9.7-10-24.2-26.4l-.6-.7c-6.9-7.8-11.5-12.9-11.7-16.6-.3-3.6 2.9-9.5 11-20.5 9.8-13.3 10.2-29.6 1.2-48.6-7.2-15-18.9-29.4-29.3-42l-.9-1.1c-9-10.9-19.3-16.4-30.9-16.4-12.8 0-23.5 6.9-29.1 10.5-.5.3-.9.6-1.4.9-12.6 8-21.8 19-25.3 30.2-5.2 16.8-8.6 38.6 16.2 84 21.5 39.3 40.9 65.6 71.8 97.4 29.1 29.8 42 39.4 70.9 60.4 32.2 23.3 63.1 36.6 84.7 36.6 20.1 0 35.9 0 58.4-27.2 23.8-28.6 14-46-.2-60.6z"/>
</svg>

<?xml version="1.0" encoding="UTF-8"?>
<svg width="512px" height="512px" viewBox="0 0 512 512" version="1.1" xmlns="http://www.w3.org/2000/svg" xmlns:xlink="http://www.w3.org/1999/xlink">
    <!-- Generator: Sketch 62 (91390) - https://sketch.com -->
    <title>ios-telephone</title>
    <desc>Created with Sketch.</desc>
    <g id="ios-telephone" stroke="none" stroke-width="1" fill="none" fill-rule="evenodd">
        <path d="M401.4,321.7 C388.1,308.1 350.4,282.5 325.7,282.5 C320,282.5 315,283.8 310.9,286.4 C298.8,294.1 289.2,300.1 284.5,300.1 C282,300.1 279.2,297.8 273.2,292.6 L272.2,291.7 C255.6,277.2 252,273.5 245.6,266.8 L244,265.1 C242.8,263.9 241.8,262.8 240.8,261.8 C235.2,256 231.1,251.8 216.6,235.4 L216,234.7 C209.1,226.9 204.5,221.8 204.3,218.1 C204,214.5 207.2,208.6 215.3,197.6 C225.1,184.3 225.5,168 216.5,149 C209.3,134 197.6,119.6 187.2,107 L186.3,105.9 C177.3,95 167,89.5 155.4,89.5 C142.6,89.5 131.9,96.4 126.3,100 C125.8,100.3 125.4,100.6 124.9,100.9 C112.3,108.9 103.1,119.9 99.6,131.1 C94.4,147.9 91,169.7 115.8,215.1 C137.3,254.4 156.7,280.7 187.6,312.5 C216.7,342.3 229.6,351.9 258.5,372.9 C290.7,396.2 321.6,409.5 343.2,409.5 C363.3,409.5 379.1,409.5 401.6,382.3 C425.4,353.7 415.6,336.3 401.4,321.7 Z" id="Path" fill="#000000" fill-rule="nonzero"></path>
    </g>
</svg>
